icons/svgs/compass-solid.svg

<svg width="24" height="24" viewBox="0 0 24 24" fill="none" xmlns="http://www.w3.org/2000/svg">
<path d="M12 22C8.40625 22 5.125 20.125 3.32812 17C1.53125 13.9141 1.53125 10.125 3.32812 7C5.125 3.91406 8.40625 2 12 2C15.5547 2 18.8359 3.91406 20.6328 7C22.4297 10.125 22.4297 13.9141 20.6328 17C18.8359 20.125 15.5547 22 12 22ZM13.9531 14.7344C14.3047 14.5781 14.5391 14.3438 14.6953 13.9922L16.8438 8.36719C17.1562 7.58594 16.4141 6.84375 15.6328 7.15625L10.0078 9.30469C9.65625 9.46094 9.42188 9.69531 9.26562 10.0469L7.11719 15.6719C6.80469 16.4141 7.58594 17.1953 8.32812 16.8828L13.9531 14.7344ZM13.25 12C13.25 12.7031 12.6641 13.25 12 13.25C11.2969 13.25 10.75 12.7031 10.75 12C10.75 11.3359 11.2969 10.75 12 10.75C12.6641 10.75 13.25 11.3359 13.25 12Z" fill="black"/>
</svg>

<svg xmlns="http://www.w3.org/2000/svg" width="24" height="24" fill="currentColor" class="icon-compass-solid" viewBox="0 0 24 24">
  <mask id="a" width="21" height="20" x="1" y="2" maskUnits="userSpaceOnUse" style="mask-type:alpha">
    <path d="M12 22c-3.594 0-6.875-1.875-8.672-5-1.797-3.086-1.797-6.875 0-10C5.125 3.914 8.406 2 12 2c3.555 0 6.836 1.914 8.633 5 1.797 3.125 1.797 6.914 0 10A9.93 9.93 0 0 1 12 22m1.953-7.266c.352-.156.586-.39.742-.742l2.149-5.625a.922.922 0 0 0-1.211-1.21l-5.625 2.148c-.352.156-.586.39-.742.742l-2.149 5.625c-.312.742.469 1.523 1.211 1.21zM13.25 12c0 .703-.586 1.25-1.25 1.25-.703 0-1.25-.547-1.25-1.25 0-.664.547-1.25 1.25-1.25.664 0 1.25.586 1.25 1.25"/>
  </mask>
  <g mask="url(#a)">
    <path d="M0 0h24v24H0z"/>
  </g>
</svg>
